!!!OTL: Ehestandslehren (202), S. 439
!!!id: T0385
**kern
*clefG2
*k[f#c#]
*D:
{8f#
8e
=1
4.d
8f#
8b
8a
=2
4a
4g}
=3
{8g
8f#
=4
4.e
8f#
8B
8c#
=5
4d}
4r
=6
{8d
8a
8b
8cc#
8d
=7
4.dd
8dd
8ee
8dd
=8
4cc#
4b}
=9
{8a
8f#
=10
4.a
8g
8e
8f#
=11
4d}
4r
==
*-
!!!minrhy: 8
!!!meters: 3/4 ]  ZZ[4
!!!cut: Ehestandslehren (202), S. 439
!!!reg: Luxemburg
!!!trd: Singendes Volk, Esch-Alzette, 1937 posth.
!!!rhy1: XX  X_.XXX  X_X_
!!!rhy2: XX  X_.XXX  X_0_
!!!key: T0385  08  D 3/4 ]  ZZ[4
!!!mod: HEPTATONIK IONISCH]  AMBITUS[11
!!!kad: 4161
!!!akz: 15_21_+17_51_
!!!fot: 'a__b__c__d__
!!!for: 'a__a__av_a__
!!!fok: 'Sa_Vd_^a_\__
!! PHRAS[AUFTAKTIG]
!!!fkt: Hochzeits-, Ehestandslied
!!!bem1: Esch-Alzette, hhh Peter Weis;
!!!bem2: StraPen, fff Witry, 1932, abweichender Text (8cht-zeilig)
!! THILL; Mathias
!! PR[47] 2K[8] 2G[8] 3K[0] 3G[0] 4A[5] 4Ü[0] 5A[3] 6K[0] 6G[0]
!! 7K[0] 7G[0] 8A[0] MEHR[0] SI[24] ABS[38] SR[16] SP[8]
!! ST[8] 2k[11] 2g[13] 3k[3] 3g[3] 4d[0] 4ü[0] 5d[0] 6k[0] 6g[0]
!! 7k[0] 7g[0] 8d[0] mehr[0] si[29] dm[-5] sr[24] sp[5]
!! 1F[15] 2F[68] 3F[10] 4F[0] LF[0] 2P[0] 3P[7] 4P[0] TRI[0] DF[4] AB[41]
!! TF[0] U3K[0] U3[0] U4[0] U4Ü[0] U5[10] U6K[0] U6[3] U7K[0] U7[10]
!! N1[23] N2K[0] N2[15] N3K[0] N3[26] N4[5] N4Ü[0] N5[5] N6K[0] N6[3]
!!!n7k: 0] N7[0] O1[0] O2K[0] O2[0] O3K[0] O3[0] HÖ[0
